libs/ui/packages/crypto-icons/src/svg/TAAS.svg

<svg width="24" height="24" viewBox="0 0 24 24" fill="none">
<path d="M3 9.75H3.9735V10.6657H3V9.75ZM3.9735 13.3305H6.80625V14.25H3V11.5815H5.8575V12.4965H3.97425V13.3305H3.9735ZM17.1937 11.5815H21V14.25H18.1425V13.3305H20.0265V12.4973H17.1937V11.5815ZM20.0422 10.71H17.1923V9.79425H20.0422V10.7093V10.71ZM7.734 11.5815H11.5402V13.3695H10.5922V14.25H7.734V11.5815ZM10.5667 13.3305V12.4973H8.7075V13.3298H10.5675L10.5667 13.3305ZM7.734 9.75H11.5402V10.6657H7.734V9.75ZM12.4845 11.5815H16.2908V13.3695H15.3428V14.25H12.4852V11.5815H12.4845ZM15.3135 13.3305V12.4973H13.4535V13.3298H15.3135V13.3305ZM12.4845 9.75H16.2908V10.6657H12.4845V9.75Z" fill="#002342"/>
</svg>

<svg width="24" height="24" viewBox="0 0 24 24" fill="none"><path fill="#002342" d="M3 9.75h.974v.916H3zm.974 3.58h2.832v.92H3v-2.668h2.858v.914H3.974zm13.22-1.748H21v2.668h-2.858v-.92h1.884v-.833h-2.832zm2.848-.872h-2.85v-.916h2.85zm-12.308.871h3.806v1.789h-.948v.88H7.734zm2.833 1.75v-.834h-1.86v.833zM7.734 9.75h3.806v.916H7.734zm4.75 1.832h3.807v1.787h-.948v.881h-2.858zm2.83 1.749v-.834h-1.86v.833zm-2.83-3.581h3.807v.916h-3.806z"/></svg>
